icons/atom.svg

<svg width="24" height="24" viewBox="0 0 24 24" fill="none" xmlns="http://www.w3.org/2000/svg">
<path d="M12 12V12.01" stroke="#1E293B" stroke-width="2" stroke-linecap="round" stroke-linejoin="round"/>
<path d="M19.071 4.92901C18.3209 4.17887 16.8565 4.20443 15 5.00008C13.1435 5.79573 11.0469 7.29629 9.17155 9.17165C7.29618 11.047 5.79562 13.1436 4.99997 15.0001C4.20432 16.8566 4.17876 18.321 4.92891 19.0711C5.67905 19.8213 7.14346 19.7957 8.99997 19.0001C10.8565 18.2044 12.953 16.7039 14.8284 14.8285C15.757 13.8999 16.6033 12.9073 17.3191 11.9072C18.0348 10.9072 18.606 9.91933 19 9.00008C19.3939 8.08083 19.603 7.24817 19.6152 6.54966C19.6274 5.85114 19.4425 5.30045 19.071 4.92901" stroke="#1E293B" stroke-width="2" stroke-linecap="round" stroke-linejoin="round"/>
<path d="M4.92895 4.9289C4.17881 5.67904 4.20437 7.14345 5.00002 8.99997C5.79567 10.8565 7.29623 12.953 9.17159 14.8284C11.047 16.7038 13.1435 18.2043 15 19C16.8565 19.7956 18.3209 19.8212 19.0711 19.071C19.8212 18.3209 19.7957 16.8565 19 15C18.2044 13.1434 16.7038 11.0469 14.8284 9.17154C13.8999 8.24295 12.9072 7.39662 11.9072 6.68086C10.9071 5.9651 9.91927 5.39393 9.00002 4.99996C8.08077 4.606 7.24811 4.39695 6.5496 4.38476C5.85108 4.37256 5.30039 4.55746 4.92895 4.9289" stroke="#1E293B" stroke-width="2" stroke-linecap="round" stroke-linejoin="round"/>
</svg>

<svg
  width="24"
  height="24"
  viewBox="0 0 24 24"
  xmlns="http://www.w3.org/2000/svg"
  fill="none"
  stroke="currentColor"
  stroke-width="2"
  stroke-linecap="round"
  stroke-linejoin="round"
>
  <path d="M12 12v.01" />
  <path d="M19.071 4.929c-.75-.75-2.215-.725-4.071.071-1.857.796-3.953 2.296-5.828 4.172C7.296 11.047 5.796 13.144 5 15c-.796 1.857-.821 3.321-.071 4.071.75.75 2.214.725 4.071-.07 1.857-.797 3.953-2.297 5.828-4.173a23.614 23.614 0 0 0 2.491-2.92c.716-1 1.287-1.989 1.681-2.908.394-.92.603-1.752.615-2.45.012-.699-.172-1.25-.544-1.621" />
  <path d="M4.929 4.929C4.179 5.679 4.204 7.143 5 9c.796 1.857 2.296 3.953 4.172 5.828C11.047 16.704 13.143 18.204 15 19c1.857.796 3.32.821 4.071.071.75-.75.725-2.215-.071-4.071-.796-1.857-2.296-3.953-4.172-5.828a23.61 23.61 0 0 0-2.92-2.491C10.907 5.965 9.918 5.394 9 5c-.92-.394-1.752-.603-2.45-.615-.699-.012-1.25.172-1.621.544" />
</svg>
